X:1
T:O'Malley's Barn Dance
M:C|
L:1/8
K:G
D2|"G"G3AB2GB|de"D"dB"G"G2d2|B2G2d2G2|B2"D"A2A2d2|!
"C"G3A"G"B2GB|de"D"dB"G"G2"C"Ac|"G"B2AG"C"E2"D"(3DEF|"G"G4G2:|]!
g2|"C"e2d2"G"g3e|"G"de"D"dB"G"G2g2|"C"e2d2"G"g3d|B2"D"A2A2g2|!
"C"e2d2"G"g3e|"G"de"D"dB"G"G2"C"Ac|"G"B2AG"C"E2"D"(3DEF|"G"G4G2:|]!
